X:75
T:Blacksmith's Hornpipe. ThoH.075, The
Q:1/2=90
M:3/2
L:1/8
B:Thompson's Compleat Collection of 120 Favourite Hornpipes.
Z:Village Music Project, Simon Wilson 2016
O:England.
K:Eb
(CEGc) edc=B{B}c4|_Bedc BAGFE4|eBGE BGEB, BEB,G,|eBGE BGEB, GEB,G,|
A,DFD AFED EGBe|cedc BAGF {E}D2{C}B,2|A,DFD AFED EGBe|cedc BAGFE4:|
|:E2(FG) (AB)(cd)e4|cfag fedc {c}=B4|(cG)TG2(cG)(dG) (eG)TG2|FAGF EDC=B,C4|
CG,GC GEDC =B,DG,2|F=Bdc BAGF EDC2|=B,DFG AFED EGc2|AFED EcD=Bc2C2:|

